icons/fill-new-office-book-collection.svg

<svg xmlns="http://www.w3.org/2000/svg" width="32px" height="32px" viewBox="0 0 32 32" version="1.1">
    <title>fill-new-office-book-collection</title>
    <g id="fill-new-office-book-collection" stroke-width="1" fill-rule="evenodd">
        <path d="M27,2 C27.5522847,2 28,2.44771525 28,3 L28,22 L7,22 C5.87385547,22 4.83466646,22.3723009 3.99880052,23.0005351 L4,5 C4,3.34314575 5.34314575,2 7,2 L11.9998005,2 L12,12 L15,9 L18,12 L17.9998005,2 L27,2 Z M7,24 L28,24 L28,29 C28,29.5522847 27.5522847,30 27,30 L7,30 C5.34314575,30 4,28.6568542 4,27 C4,25.3431458 5.34314575,24 7,24 Z" id="&#24418;&#29366;" />
    </g>
</svg>

<svg xmlns="http://www.w3.org/2000/svg" viewBox="0 0 32 32"><path fill="currentColor" d="M27 2a1 1 0 0 1 1 1v19H7a4.978 4.978 0 0 0-3.001 1L4 5a3 3 0 0 1 3-3h5v10l3-3 3 3V2zM7 24h21v5a1 1 0 0 1-1 1H7a3 3 0 0 1 0-6"/></svg>
